; G-Code generated by Simplify3D(R) Version 5.1.2
; Jul 10, 2025 at 2:07:20 PM
; Settings Summary
;   processName,PLA 50% Fill
;   autoConfigureMaterial,PLA
;   autoConfigureQuality,Medium
;   targetModels,StarGateClock,StarGateClockLid
;   profileName,Creality Ender 5 S1
;   profileVersion,2023-03-02 08:00:00
;   app,S3D-Software 5.1.2
;   technology,fff
;   baseProfile,
;   extruder,Primary Extruder
;   toolheadNumber,0
;   nozzleDiameter,0.40000
;   extrusionMultiplier,0.90000
;   extrusionWidthMode,manual
;   extrusionWidth,0.40000
;   useRetraction,1
;   retractDistance,1.00000
;   extraRestartDistance,0.00000
;   retractVerticalLift,0.00000
;   retractSpeed,2400.00000
;   useCoasting,0
;   coastingDistance,0.20000
;   useWiping,0
;   wipingDistance,5.00000
;   speedMaxFlowRate,1000.00000
;   toolheadOffsetX,0.00000
;   toolheadOffsetY,0.00000
;   filamentDiameter,1.75000
;   filamentPricePerKilogram,46.00000
;   filamentDensity,1.25000
;   primaryExtruder,Primary Extruder
;   layerHeight,0.20000
;   topSolidLayers,3
;   bottomSolidLayers,3
;   outlinePerimeters,2
;   useVaseMode,0
;   useAdaptiveLayerHeights,0
;   minAdaptiveLayerHeight,0.10000
;   maxAdaptiveLayerHeight,0.30000
;   adaptiveSmoothingLevel,5
;   horizontalOuterCompensation,0.00000
;   horizontalInnerCompensation,0.00000
;   firstLayerUnits,percentage
;   firstLayerHeightPercentage,100
;   firstLayerWidthPercentage,150
;   firstLayerSpeedPercentage,25
;   firstLayerHeightAbsolute,0.30000
;   firstLayerWidthAbsolute,0.40000
;   firstLayerSpeedAbsolute,900.00000
;   startPointStrategy,closest
;   alignStartPointsX,0.00000
;   alignStartPointsY,0.00000
;   restrictStartPoints,1
;   perimeterPrintingOrder,inside_out
;   islandPrintingOrder,closest
;   printInfillBeforePerimeters,0
;   useSkirt,1
;   skirtExtruder,Primary Extruder
;   skirtLayers,4
;   skirtOffset,4.00000
;   skirtOutlines,1
;   useRaft,0
;   raftExtruder,Primary Extruder
;   raftBaseLayers,2
;   raftTopLayers,3
;   raftOffset,3.00000
;   raftSeparationDistance,0.14000
;   raftSpeedUnits,percentage
;   raftSpeedPercentage,30
;   raftSpeedAbsolute,600.00000
;   usePrimePillar,0
;   primePillarExtruder,All Extruders
;   primePillarWidth,12.00000
;   primePillarLocation,north_west
;   primePillarSpeedPercentage,100
;   primePillarInfillPercentage,100
;   autoStopPrimePillar,1
;   primePillarLayersAfterAutoStop,0
;   useOozeShield,0
;   oozeShieldExtruder,All Extruders
;   oozeShieldOffset,2.00000
;   oozeShieldOutlines,1
;   oozeShieldSidewallShape,waterfall
;   oozeShieldSidewallAngle,30
;   oozeShieldSpeedPercentage,100
;   autoStopOozeShield,1
;   oozeShieldLayersAfterAutoStop,0
;   sparseInfillExtruder,Primary Extruder
;   sparseInfillPattern,rectilinear
;   sparseInfillRotation,0
;   sparseInfillPercentage,50
;   sparseInfillExtrusionWidthPercentage,100
;   sparseInfillCombinedLayers,1
;   denseInfillLayers,0
;   denseInfillPercentage,50
;   infillOutlineOverlapPercentage,15
;   minInfillLength,5.00000
;   externalInfillPattern,rectilinear
;   externalInfillRotation,0
;   solidInfillThresholdArea,25.00000
;   solidInfillExtraExpansion,0.00000
;   useMonotonic,0
;   useDiaphragm,0
;   diaphragmSolidLayers,3
;   diaphragmSpacingLayers,20
;   topLayerExtraExpansion,1.00000
;   topLayerExtrusionModifier,100
;   overrideFanSpeedForTopLayer,0
;   topLayerFanSpeedPercentage,100
;   useIroning,0
;   ironingOutlineOffsetPercentage,50
;   ironingExtrusionWidthPercentage,25
;   ironingExtrusionModifier,15
;   ironingSpeedModifier,30
;   sparseSupportExtruder,Primary Extruder
;   sparseSupportInfillPattern,aligned
;   sparseSupportInfillRotation,0
;   sparseSupportInfillPercentage,30
;   sparseSupportOutlines,0
;   sparseSupportCombinedLayers,1
;   upperDenseSupportLayers,0
;   lowerDenseSupportLayers,0
;   denseSupportExtruder,Primary Extruder
;   denseSupportInfillPercentage,70
;   denseSupportExtraExpansion,0.00000
;   baseSupportLayers,0
;   supportInflationDistance,0.00000
;   supportHorizontalPartOffset,0.30000
;   supportUpperSeparationLayers,1
;   supportLowerSeparationLayers,1
;   temperatureController,Primary Extruder
;   enableTemperatureController,1
;   temperatureNumber,0
;   temperatureType,extruder
;   stabilizeAtStartup,1
;   temperatureSetpoints,1|210
;   useIdleCooldown,0
;   cooldownTemperature,150
;   cooldownRequiredIdleTime,180
;   cooldownReheatTime,60
;   temperatureController,Heated Bed
;   enableTemperatureController,1
;   temperatureNumber,0
;   temperatureType,platform
;   stabilizeAtStartup,1
;   temperatureSetpoints,1|60
;   useIdleCooldown,0
;   cooldownTemperature,150
;   cooldownRequiredIdleTime,180
;   cooldownReheatTime,60
;   fan,Cooling Fan
;   fanNumber,0
;   fanType,extruder
;   blipFanToFullPower,0
;   fanSetpoints,1|0,2|100
;   increaseFanForQuickLayers,0
;   fanMaxQuickLayerTime,45.00000
;   fanMinQuickLayerTime,15.00000
;   maxQuickLayerFanSpeedPercentage,100
;   defaultPrintSpeed,6000.00000
;   outerPerimeterSpeedPercentage,50
;   innerPerimeterSpeedPercentage,80
;   topLayerSpeedPercentage,50
;   solidInfillSpeedPercentage,80
;   sparseSupportSpeedPercentage,80
;   denseSupportSpeedPercentage,70
;   travelSpeedXY,4800.00000
;   travelSpeedZ,1000.00000
;   reduceSpeedForQuickLayers,1
;   speedMaxQuickLayerTime,15.00000
;   minQuickLayerSpeedPercentage,20
;   reduceSpeedForShortPerimeters,1
;   speedMaxShortPerimeterLength,80.00000
;   minShortPerimeterSpeedPercentage,50
;   reduceSpeedForMaxFlowRate,0
;   accelXY,2000.00000
;   accelZ,100.00000
;   accelE,2000.00000
;   jerkXY,600.00000
;   jerkZ,24.00000
;   jerkE,300.00000
;   exportFileFormat,gcode
;   useStickyCommands,1
;   use5D,1
;   relativeExtrusionDistances,0
;   allowExtruderAxisZeroing,1
;   independentExtruderAxes,0
;   includeM10123,0
;   includeThumbnailImages,0
;   thumbnailImageEncoding,standard
;   thumbnailImageSizes,300|300
;   x3gMachineProfile,r2
;   overrideStepsPerMillimeter,0
;   stepsPerMillimeterX,88.57319
;   stepsPerMillimeterY,88.57319
;   stepsPerMillimeterZ,400.00000
;   stepsPerMillimeterA,96.27520
;   stepsPerMillimeterB,96.27520
;   xyzFileFormatVersion,1
;   makerBotMachineProfile,replicator_5
;   makerBotModelExtruder,mk13
;   makerBotSupportExtruder,mk14_s
;   makerBotModelMaterial,pla
;   makerBotSupportMaterial,pva
;   globalOffsetX,0.00000
;   globalOffsetY,0.00000
;   globalOffsetZ,0.00000
;   applyToolheadOffsets,0
;   buildVolumeShape,rectangular
;   buildVolumeX,220.00000
;   buildVolumeY,220.00000
;   buildVolumeZ,280.00000
;   buildVolumeDiameter,200.00000
;   originOffsetX,0.00000
;   originOffsetY,0.00000
;   originOffsetZ,0.00000
;   homingDirectionX,min
;   homingDirectionY,min
;   homingDirectionZ,min
;   mirrorVisualX,0
;   mirrorVisualY,1
;   mirrorVisualZ,0
;   machineBackgroundModel,
;   startingScript,G28 ; home all axes|G1 X5 Y10 Z0.2 F3000 ; get ready to prime|G92 E0 ; reset extrusion distance|G1 X160 E15 F600 ; prime nozzle|G1 X185 F5000 ; quick wipe
;   preLayerChangeScript,
;   postLayerChangeScript,
;   preRetractionScript,
;   postRetractionScript,
;   preToolChangeScript,
;   postToolChangeScript,
;   processChangeScript,
;   endingScript,G28 X0 ; home X axis|M106 S0 ; turn off cooling fan|M104 S0 ; turn off extruder|M140 S0 ; turn off bed|M84 ; disable motors
;   postProcessingScript,
;   useBridging,1
;   bridgingThresholdArea,50.00000
;   bridgingInfillExtraExpansion,0.00000
;   bridgingExtrusionModifier,100
;   bridgingSpeedModifier,100
;   overrideFanSpeedForBridging,0
;   bridgingFanSpeedPercentage,100
;   useFixedBridgingAngle,0
;   fixedBridgingAngle,0
;   applyBridgingToPerimeters,0
;   bridgingPerimeterExtraOverlap,0.00000
;   minBridgingPerimeterLength,10.00000
;   useToolChangeRetraction,1
;   toolChangeRetractDistance,12.00000
;   toolChangeExtraRestartDistance,-0.50000
;   toolChangeRetractSpeed,600.00000
;   toolChangePrimeOnFirstUse,0
;   toolChangeRetractAtEnd,0
;   externalThinWallType,perimeters_only
;   internalThinWallType,gap_fill
;   thinWallAllowedOverlapPercentage,10
;   singleExtrusionMinLength,1.00000
;   singleExtrusionMinWidthPercentage,50
;   singleExtrusionMaxWidthPercentage,200
;   singleExtrusionEndpointExtensionDistance,0.20000
;   onlyRetractWhenCrossingOutlines,1
;   retractBetweenLayers,1
;   retractOnTopLayers,0
;   useRetractionMinTravel,0
;   retractionMinTravel,3.00000
;   useRetractionMinExtrusion,0
;   retractionMinExtrusion,3.00000
;   onlyVerticalLiftOnTopLayers,0
;   retractWhileWiping,0
;   wipingMode,outer_perimeter
;   avoidCrossingOutlines,0
;   maxMovementDetourFactor,3.00000
;   openLoopSlicingBehavior,heal
;   openLoopThickenWidth,0.50000
;   slicingRegionRepairMode,positive
G90
M82
M106 S0 P0
M140 S60
M190 S60
M104 S210 T0
M109 S210 T0
G28 ; home all axes
G1 X5 Y10 Z0.2 F3000 ; get ready to prime
G92 E0 ; reset extrusion distance
G1 X160 E15 F600 ; prime nozzle
G1 X185 F5000 ; quick wipe
; process PLA 50% Fill
; layer 1, Z = 0.2000
T0
G92 E0.00000
G1 E-1.00000 F2400
; feature skirt
; tool H0.2000 W0.600
G1 Z0.2000 F1000
G1 X11.492 Y55.700 F4800
G92 E0.00000
G1 E1.00000 F2400
G92 E0.00000
G1 X75.054 Y55.700 E2.85402 F1500
G1 X77.573 Y58.219 E3.01397
G1 X77.573 Y161.781 E7.66404
G1 X75.054 Y164.300 E7.82398
G1 X11.492 Y164.300 E10.67800
G1 X8.973 Y161.781 E10.83795
G1 X8.973 Y58.219 E15.48802
G1 X11.492 Y55.700 E15.64797
G92 E0.00000
G1 E-1.00000 F2400
G1 X81.893 Y65.620 F4800
G92 E0.00000
G1 E1.00000 F2400
G92 E0.00000
G1 X84.412 Y63.102 E0.15995 F1500
G1 X86.884 Y63.102 E0.27094
G1 X87.159 Y62.827 E0.28837
G1 X89.713 Y62.827 E0.40308
G1 X89.916 Y62.625 E0.41593
G1 X91.980 Y62.625 E0.50861
G1 X91.980 Y59.999 E0.62651
G1 X94.499 Y57.480 E0.78646
G1 X125.501 Y57.480 E2.17850
G1 X128.020 Y59.999 E2.33844
G1 X128.020 Y62.426 E2.44744
G1 X130.475 Y62.426 E2.55769
G1 X130.630 Y62.581 E2.56751
G1 X133.104 Y62.581 E2.67862
G1 X133.329 Y62.806 E2.69288
G1 X135.007 Y62.806 E2.76825
G1 X137.526 Y65.325 E2.92820
G1 X137.526 Y72.807 E3.26416
G1 X135.007 Y75.326 E3.42411
G1 X134.130 Y75.326 E3.46352
G1 X134.676 Y161.626 E7.33858
G1 X132.173 Y164.161 E7.49853
G1 X88.580 Y164.436 E9.45592
G1 X86.046 Y161.934 E9.61586
G1 X85.500 Y75.622 E13.49145
G1 X84.412 Y75.622 E13.54029
G1 X81.893 Y73.103 E13.70024
G1 X81.893 Y65.620 E14.03620
G92 E0.00000
G1 E-1.00000 F2400
; feature inner perimeter
G1 X72.373 Y60.900 F4800
G92 E0.00000
G1 E1.00000 F2400
G92 E0.00000
G1 X72.373 Y159.100 E4.40930 F1200
G1 X14.173 Y159.100 E7.02255
G1 X14.173 Y60.900 E11.43184
G1 X72.373 Y60.900 E14.04509
; feature outer perimeter
G1 X72.973 Y60.300 F4800
G92 E0.00000
G1 X72.973 Y159.700 E4.46318 F750
G1 X13.573 Y159.700 E7.13031
G1 X13.573 Y60.300 E11.59348
G1 X72.973 Y60.300 E14.26062
; feature solid layer
G1 X71.863 Y61.794 F4800
G92 E0.00000
G1 X71.479 Y61.410 E0.02439 F1200
G1 X70.631 Y61.410 E0.06249
G1 X71.863 Y62.643 E0.14077
G1 X71.863 Y63.491 E0.17887
G1 X69.782 Y61.410 E0.31102
G1 X68.934 Y61.410 E0.34912
G1 X71.863 Y64.340 E0.53516
G1 X71.863 Y65.188 E0.57326
G1 X68.085 Y61.410 E0.81318
G1 X67.236 Y61.410 E0.85128
G1 X71.863 Y66.037 E1.14508
G1 X71.863 Y66.885 E1.18318
G1 X66.388 Y61.410 E1.53086
G1 X65.539 Y61.410 E1.56896
G1 X71.863 Y67.734 E1.97052
G1 X71.863 Y68.582 E2.00862
G1 X64.691 Y61.410 E2.46406
G1 X63.842 Y61.410 E2.50216
G1 X71.863 Y69.431 E3.01149
G1 X71.863 Y70.279 E3.04959
G1 X62.994 Y61.410 E3.61280
G1 X62.145 Y61.410 E3.65090
G1 X71.863 Y71.128 E4.26798
G1 X71.863 Y71.976 E4.30608
G1 X61.297 Y61.410 E4.97705
G1 X60.448 Y61.410 E5.01515
G1 X71.863 Y72.825 E5.74001
G1 X71.863 Y73.674 E5.77811
G1 X59.600 Y61.410 E6.55684
G1 X58.751 Y61.410 E6.59494
G1 X71.863 Y74.522 E7.42755
G1 X71.863 Y75.371 E7.46565
G1 X57.903 Y61.410 E8.35215
G1 X57.054 Y61.410 E8.39025
G1 X71.863 Y76.219 E9.33062
G1 X71.863 Y77.068 E9.36872
G1 X56.206 Y61.410 E10.36298
G1 X55.357 Y61.410 E10.40108
G1 X71.863 Y77.916 E11.44922
G1 X71.863 Y78.765 E11.48732
G1 X54.509 Y61.410 E12.58934
G1 X53.660 Y61.410 E12.62744
G1 X71.863 Y79.613 E13.78335
G1 X71.863 Y80.462 E13.82145
G1 X52.811 Y61.410 E15.03123
G1 X51.963 Y61.410 E15.06933
G1 X71.863 Y81.310 E16.33300
G1 X71.863 Y82.159 E16.37110
G1 X51.114 Y61.410 E17.68864
G1 X50.266 Y61.410 E17.72674
G1 X71.863 Y83.007 E19.09817
G1 X71.863 Y83.856 E19.13627
G1 X49.417 Y61.410 E20.56158
G1 X48.569 Y61.410 E20.59968
G1 X71.863 Y84.704 E22.07887
G1 X71.863 Y85.553 E22.11697
G1 X47.720 Y61.410 E23.65005
G1 X46.872 Y61.410 E23.68815
G1 X71.863 Y86.401 E25.27510
G1 X71.863 Y87.250 E25.31320
G1 X46.023 Y61.410 E26.95403
G1 X45.175 Y61.410 E26.99213
G1 X71.863 Y88.099 E28.68685
G1 X71.863 Y88.947 E28.72495
G1 X44.326 Y61.410 E30.47355
G1 X43.478 Y61.410 E30.51165
G1 X71.863 Y89.796 E32.31413
G1 X71.863 Y90.644 E32.35223
G1 X42.629 Y61.410 E34.20859
G1 X41.781 Y61.410 E34.24669
G1 X71.863 Y91.493 E36.15693
G1 X71.863 Y92.341 E36.19503
G1 X40.932 Y61.410 E38.15916
G1 X40.084 Y61.410 E38.19726
G1 X71.863 Y93.190 E40.21526
G1 X71.863 Y94.038 E40.25336
G1 X39.235 Y61.410 E42.32525
G1 X38.387 Y61.410 E42.36335
G1 X71.863 Y94.887 E44.48912
G1 X71.863 Y95.735 E44.52722
G1 X37.538 Y61.410 E46.70687
G1 X36.689 Y61.410 E46.74497
G1 X71.863 Y96.584 E48.97850
G1 X71.863 Y97.432 E49.01660
G1 X35.841 Y61.410 E51.30401
G1 X34.992 Y61.410 E51.34211
G1 X71.863 Y98.281 E53.68341
G1 X71.863 Y99.129 E53.72151
G1 X34.144 Y61.410 E56.11668
G1 X33.295 Y61.410 E56.15478
G1 X71.863 Y99.978 E58.60384
G1 X71.863 Y100.826 E58.64194
G1 X32.447 Y61.410 E61.14488
G1 X31.598 Y61.410 E61.18298
G1 X71.863 Y101.675 E63.73980
G1 X71.863 Y102.523 E63.77790
G1 X30.750 Y61.410 E66.38860
G1 X29.901 Y61.410 E66.42670
G1 X71.863 Y103.372 E69.09128
G1 X71.863 Y104.221 E69.12938
G1 X29.053 Y61.410 E71.84784
G1 X28.204 Y61.410 E71.88594
G1 X71.863 Y105.069 E74.65829
G1 X71.863 Y105.918 E74.69639
G1 X27.356 Y61.410 E77.52262
G1 X26.507 Y61.410 E77.56072
G1 X71.863 Y106.766 E80.44083
G1 X71.863 Y107.615 E80.47893
G1 X25.659 Y61.410 E83.41291
G1 X24.810 Y61.410 E83.45101
G1 X71.863 Y108.463 E86.43889
G1 X71.863 Y109.312 E86.47699
G1 X23.962 Y61.410 E89.51874
G1 X23.113 Y61.410 E89.55684
G1 X71.863 Y110.160 E92.65247
G1 X71.863 Y111.009 E92.69057
G1 X22.264 Y61.410 E95.84009
G1 X21.416 Y61.410 E95.87819
G1 X71.863 Y111.857 E99.08158
G1 X71.863 Y112.706 E99.11968
G1 X20.567 Y61.410 E102.37696
G1 X19.719 Y61.410 E102.41506
G1 X71.863 Y113.554 E105.72622
G1 X71.863 Y114.403 E105.76432
G1 X18.870 Y61.410 E109.12936
G1 X18.022 Y61.410 E109.16746
G1 X71.863 Y115.251 E112.58639
G1 X71.863 Y116.100 E112.62448
G1 X17.173 Y61.410 E116.09729
G1 X16.325 Y61.410 E116.13539
G1 X71.863 Y116.948 E119.66207
G1 X71.863 Y117.797 E119.70017
G1 X15.476 Y61.410 E123.28074
G1 X14.683 Y61.410 E123.31635
G1 X14.683 Y61.466 E123.31884
G1 X71.863 Y118.646 E126.94976
G1 X71.863 Y119.494 E126.98786
G1 X14.683 Y62.314 E130.61879
G1 X14.683 Y63.163 E130.65689
G1 X71.863 Y120.343 E134.28781
G1 X71.863 Y121.191 E134.32591
G1 X14.683 Y64.011 E137.95683
G1 X14.683 Y64.860 E137.99493
G1 X71.863 Y122.040 E141.62585
G1 X71.863 Y122.888 E141.66395
G1 X14.683 Y65.708 E145.29487
G1 X14.683 Y66.557 E145.33297
G1 X71.863 Y123.737 E148.96390
G1 X71.863 Y124.585 E149.00200
G1 X14.683 Y67.405 E152.63292
G1 X14.683 Y68.254 E152.67102
G1 X71.863 Y125.434 E156.30194
G1 X71.863 Y126.282 E156.34004
G1 X14.683 Y69.102 E159.97096
G1 X14.683 Y69.951 E160.00906
G1 X71.863 Y127.131 E163.63998
G1 X71.863 Y127.979 E163.67808
G1 X14.683 Y70.799 E167.30901
G1 X14.683 Y71.648 E167.34711
G1 X71.863 Y128.828 E170.97803
G1 X71.863 Y129.676 E171.01613
G1 X14.683 Y72.496 E174.64705
G1 X14.683 Y73.345 E174.68515
G1 X71.863 Y130.525 E178.31607
G1 X71.863 Y131.373 E178.35417
G1 X14.683 Y74.193 E181.98510
G1 X14.683 Y75.042 E182.02320
G1 X71.863 Y132.222 E185.65412
G1 X71.863 Y133.071 E185.69222
G1 X14.683 Y75.891 E189.32314
G1 X14.683 Y76.739 E189.36124
G1 X71.863 Y133.919 E192.99216
G1 X71.863 Y134.768 E193.03026
G1 X14.683 Y77.588 E196.66119
G1 X14.683 Y78.436 E196.69929
G1 X71.863 Y135.616 E200.33021
G1 X71.863 Y136.465 E200.36831
G1 X14.683 Y79.285 E203.99923
G1 X14.683 Y80.133 E204.03733
